X: 2349
T: Bah Hamburg II
R: reel
M: 4/4
K: Amajor
[M:7/8] F2EF ABc|B2A AcBA|F2EF ABc|[M:5/8] B2 AFE|
[M:7/8] F2EF ABc|B2A cABA|d2cA BAG|[M:5/8] A2 GFE:|
|:[M:7/8] F2EF ABc|~B3 dedB|cd Bc BAG|[M:5/8] A2 GFE|
[M:7/8] F2EF ABc|~B3 dedB|cd (3cBA BAG|[M:5/8] A2 GFE:|
|:[M:7/8] F2EF AEG|A2G GAGE|F2 (3ABc dcA|[M:5/8] B2 AGE|
[M:7/8] F2EF AEG|A2G GAGE|~F3A GAG|[M:5/8] F2 AGE:|

